src/extras-unicode/subdivision-flag/1F3F4-E0075-E0073-E0063-E0061-E007F.svg

<svg id="emoji" viewBox="0 0 72 72" xmlns="http://www.w3.org/2000/svg">
  <g id="grid">
    <path fill="#B3B3B3" d="M68 4V68H4V4H68ZM72 0H0V72H72V0Z"/>
    <path fill="none" stroke="#00A5FF" stroke-miterlimit="10" stroke-width="0.1" d="M12.923 10.9583H59.0769C59.5869 10.9583 60.0761 11.1609 60.4367 11.5216C60.7974 11.8822 61 12.3714 61 12.8814V59.0352C61 59.5452 60.7974 60.0344 60.4367 60.3951C60.0761 60.7557 59.5869 60.9583 59.0769 60.9583H12.9231C12.4131 60.9583 11.9239 60.7557 11.5633 60.3951C11.2026 60.0344 11 59.5452 11 59.0352V12.8813C11 12.3713 11.2026 11.8822 11.5632 11.5215C11.9239 11.1609 12.413 10.9583 12.923 10.9583V10.9583Z"/>
    <path fill="none" stroke="#00A5FF" stroke-miterlimit="10" stroke-width="0.1" d="M53.7463 4H18.2537C17.009 4 16 5.00902 16 6.2537V65.7463C16 66.991 17.009 68 18.2537 68H53.7463C54.991 68 56 66.991 56 65.7463V6.2537C56 5.00902 54.991 4 53.7463 4Z"/>
    <path fill="none" stroke="#00A5FF" stroke-miterlimit="10" stroke-width="0.1" d="M68 53.7463V18.2537C68 17.009 66.991 16 65.7463 16L6.2537 16C5.00902 16 4 17.009 4 18.2537V53.7463C4 54.991 5.00902 56 6.2537 56L65.7463 56C66.991 56 68 54.991 68 53.7463Z"/>
    <path fill="none" stroke="#00A5FF" stroke-miterlimit="10" stroke-width="0.1" d="M36 65C52.0163 65 65 52.0163 65 36C65 19.9837 52.0163 7 36 7C19.9837 7 7 19.9837 7 36C7 52.0163 19.9837 65 36 65Z"/>
  </g>
  <g id="color">
    <path fill="#fff" d="M67 17H5.31909V54.8044H67V17Z"/>
    <g>
      <path fill="#5c9e31" fill-rule="evenodd" d="M50.9767 40H21.0233C25.4306 39.3639 30.5453 39 36 39C41.4547 39 46.5694 39.3639 50.9767 40Z" clip-rule="evenodd"/>
      <path fill="#5c9e31" d="M50.9767 40V41C51.5012 41 51.9366 40.5948 51.9741 40.0716C52.0117 39.5484 51.6387 39.0852 51.1195 39.0103L50.9767 40ZM21.0233 40L20.8805 39.0103C20.3614 39.0852 19.9883 39.5484 20.0259 40.0716C20.0634 40.5948 20.4988 41 21.0233 41V40ZM50.9767 39H21.0233V41H50.9767V39ZM36 38C30.5029 38 25.3401 38.3666 20.8805 39.0103L21.1662 40.9897C25.5212 40.3612 30.5878 40 36 40V38ZM51.1195 39.0103C46.6599 38.3666 41.4972 38 36 38V40C41.4122 40 46.4788 40.3612 50.8339 40.9897L51.1195 39.0103Z"/>
    </g>
    <rect x="5" y="48" width="62" height="7" fill="#EA5A47"/>
    <path fill="#EA5A47" stroke="#EA5A47" stroke-linejoin="round" d="M16.5 23L17.0613 24.7275H18.8776L17.4082 25.7951L17.9695 27.5225L16.5 26.4549L15.0305 27.5225L15.5918 25.7951L14.1224 24.7275H15.9387L16.5 23Z"/>
    <path fill="#A57939" stroke="#A57939" stroke-linejoin="round" d="M25.5 32.5L23.5 34L24 34.5L24.8271 34.4503V35.4503C28.4074 35.4503 27.7699 32.8316 30.5 34C30.5 34 29.4151 38.1054 26.9733 38.4315L26.9789 39.0621C28.1505 39.0621 27.3074 39.0403 28.479 39.0403C30.5344 37.752 32.1332 36.5621 33.5 35C34.1926 37.12 36.8577 37.12 35 38.5H36.7574C36.7574 38.5 36.9414 38.3277 37.2588 37.89C37.5762 37.4523 35.962 34.9708 35.962 34.9708C35.962 34.9708 38.5 35.5 39.5 35C38.7039 36.9627 41.4817 38.222 38.5 38.6L39 39H40.5C40.5 39 42.3158 36.7973 42.6319 35.4503C43.1828 38.3454 47.7828 36.6894 45 39H46L47.5 38C45.5794 36 45.9673 28.5227 40.4686 28.5227C37.9686 28.5227 37.5 29 36.5 29C35.5 29 33 28 32 28C31 28 27.8489 29.8594 27.5 30C27.1511 30.1406 26.3271 30.541 26.3271 30.541C25.8271 30.541 24.8271 32.041 24.8271 32.041L25.5 32.5Z"/>
    <path fill="none" stroke="#A57939" stroke-linecap="round" stroke-width="3" d="M40.5 44.5H53M19 44.5H35.5"/>
  </g>
  <g id="line">
    <path fill="none" stroke="#000" stroke-linecap="round" stroke-linejoin="round" stroke-width="2" d="M67 17H5V55H67V17Z"/>
  </g>
</svg>

<svg viewBox="0 0 72 72" xmlns="http://www.w3.org/2000/svg"><path fill="#B3B3B3" d="M68 4v64H4V4h64zm4-4H0v72h72V0z"/><path fill="none" stroke="#00A5FF" stroke-miterlimit="10" stroke-width=".1" d="M12.923 10.958h46.154A1.923 1.923 0 0161 12.881v46.154a1.923 1.923 0 01-1.923 1.923H12.923A1.923 1.923 0 0111 59.035V12.881a1.923 1.923 0 011.923-1.923v0z"/><path fill="none" stroke="#00A5FF" stroke-miterlimit="10" stroke-width=".1" d="M53.746 4H18.254A2.254 2.254 0 0016 6.254v59.492A2.254 2.254 0 0018.254 68h35.492A2.254 2.254 0 0056 65.746V6.254A2.254 2.254 0 0053.746 4z"/><path fill="none" stroke="#00A5FF" stroke-miterlimit="10" stroke-width=".1" d="M68 53.746V18.254A2.254 2.254 0 0065.746 16H6.254A2.254 2.254 0 004 18.254v35.492A2.254 2.254 0 006.254 56h59.492A2.254 2.254 0 0068 53.746z"/><path fill="none" stroke="#00A5FF" stroke-miterlimit="10" stroke-width=".1" d="M36 65c16.016 0 29-12.984 29-29S52.016 7 36 7 7 19.984 7 36s12.984 29 29 29z"/><path d="M67 17H5v38h62V17z" stroke-linecap="round" stroke-miterlimit="10" stroke-width="6" stroke="#fff" fill="none" stroke-linejoin="round"/><path fill="#fff" d="M67 17H5.32v37.804H67V17z"/><g fill="#5c9e31"><path fill-rule="evenodd" d="M50.977 40H21.023c4.408-.636 9.522-1 14.977-1s10.57.364 14.977 1z" clip-rule="evenodd"/><path d="M50.977 40v1a1 1 0 00.143-1.99l-.143.99zm-29.954 0l-.142-.99a1 1 0 00.142 1.99v-1zm29.954-1H21.023v2h29.954v-2zM36 38c-5.497 0-10.66.367-15.12 1.01l.286 1.98C25.521 40.36 30.588 40 36 40v-2zm15.12 1.01C46.66 38.367 41.497 38 36 38v2c5.412 0 10.479.361 14.834.99l.285-1.98z"/></g><path fill="#EA5A47" d="M5 48h62v7H5z"/><path fill="#EA5A47" stroke="#EA5A47" stroke-linejoin="round" d="M16.5 23l.561 1.727h1.817l-1.47 1.068.561 1.727-1.469-1.067-1.47 1.068.562-1.728-1.47-1.068h1.817L16.5 23z"/><path fill="#A57939" stroke="#A57939" stroke-linejoin="round" d="M25.5 32.5l-2 1.5.5.5.827-.05v1c3.58 0 2.943-2.618 5.673-1.45 0 0-1.085 4.105-3.527 4.431l.006.631c1.172 0 .328-.022 1.5-.022 2.055-1.288 3.654-2.478 5.021-4.04.693 2.12 3.358 2.12 1.5 3.5h1.757s.184-.172.502-.61c.317-.438-1.297-2.92-1.297-2.92s2.538.53 3.538.03c-.796 1.963 1.982 3.222-1 3.6l.5.4h1.5s1.816-2.203 2.132-3.55c.55 2.895 5.15 1.24 2.368 3.55h1l1.5-1c-1.92-2-1.533-9.477-7.031-9.477-2.5 0-2.969.477-3.969.477S33 28 32 28s-4.151 1.86-4.5 2c-.349.14-1.173.541-1.173.541-.5 0-1.5 1.5-1.5 1.5l.673.459z"/><path fill="none" stroke="#A57939" stroke-linecap="round" stroke-width="3" d="M40.5 44.5H53m-34 0h16.5"/><g><path fill="none" stroke="#000" stroke-linecap="round" stroke-linejoin="round" stroke-width="2" d="M67 17H5v38h62V17z"/></g></svg>
